X:1055
T:Hornpipe
O:ireland
R:Hornpipe
M:4/4
K:D
FG|\
AF Ad BG Bd|AF Ad f2ed|\
ce gf ed cd|(3efe (3dcB AG FG|\
AF Ad BG Bd|AF Ad f2 ed|\
ce gf ed cd|(3efe dc d2::\
ef|\
gf ge cA Bc|dc de f2 ef|
gf ge cA Bd|ed cB AG FG|\
AF Ad BG Bd|AF Ad f2 ed|\
ce gf ed cd|(3efe d2 d2:|
